X: 43
M:C|
L:1/8
K:Bb
(udc)|B>FD>F B>df>d|e>cA>c B>df>d|b>ag>f e>dc>B|(3.c.d.c (3.B.A.G (3.F.G.F (3.E.D.C|
|:(udc)|B>df>d b>fd>B|f>ba>b f>dB>F|D>B,F>D B>Fd>B|(3.c.d.c (3.B.A.G (3.F.G.F (3.E.D.C|


